X:263
T:Waltz Of The Mountain Laurels
R:waltz
C:Bruce Osborne - Jan. 2005
Z:abc by bosborne@kos.net
M:3/4
L:1/8
K:Amaj
CD|E3 F ED|CE A2 AB|c2 ce cA|E3 c dc|\
B3 A Bc|dc de gf|ef ed B^B|c4 (3cBA|\
E3 F ED|CE A2 AB|c2 ce cA|E3 c dc|\
B3 A Bc|dc de gf|ef ed BG|A4
|:ef|e2 c2 EF|E2 C2 (3EFG|AE Ac fc|e3 f ga|\
g3 B Bc|d3 c de|1 gf ed B^B|c4:|2gf ed BG|A4||
